X:1
T:Captain Grant
M:3/4
L:1/4
K:C
 G| C2 E| G2 B| A G2| B,2 C| E- D E| C2 B,| C3| z2 G| G2 c| c2 B| B A2|\
 A2 F| D2 A| A ^G A-| A3| z2 A| G2 E| F G2| G E2| z2 G| c2 c| B- A G|\
 A/2- G3/2- G| z2 C/2C/2| C2 E| G2 c| A G2| B,2 C| E D2| C2 B,| C3|\
 z2||
